X: 10040
T: ISABELLA'S HORNPIPE
C: Bob McQuillen 10 May 93
B: Bob's Note Book 10 #40
%R: hornpipe, reel
Z: 2020 John Chambers <jc:trillian.mit.edu>
M: C
L: 1/8
K: G
DE \
| G2BG EDGA | B2dc BGBd | e2ce d2Bd | cedB AcBA |\
| G2BG EDGA | B2dc BGBd | efge dBAc | B2G2 G2 :|
|: FG \
| A2AG FDGA | B2dc BGBd | edef geag | f2d2 d2Bd |\
| edcB c2dc | BcdB G2Bd | cBAB cdef | g2G2 G2 :|
%%begintext align
%% Every year, in
%% the month of May, a bunch of us old cronies (and young cronies!)
%% gather in Falls Village, CT, at Camp Isabella Freedman and enjoy
%% a very happy musical reunion. It makes for a very nice weekend,
%% full of good friends and good music. I'm sure Isabella would approve.
%%endtext

%%sep 1 1 500

%%sep 1 1 500

